flaticon/files-and-folders/files-24.svg

<svg xmlns="http://www.w3.org/2000/svg" width="32" height="32" viewBox="0 0 24 24">
    <path d="M 22.398438 6.398438 L 22.363281 6.398438 C 22.179688 5.476562 21.382812 4.800781 20.398438 4.800781 L 14.199219 4.800781 L 12.320312 2.558594 C 12.238281 2.441406 12.121094 2.398438 12 2.398438 L 3.199219 2.398438 C 2.320312 2.398438 1.601562 3.121094 1.601562 4 L 1.601562 6.398438 C 0.71875 6.398438 0 7.121094 0 8 L 0 20 C 0 20.878906 0.71875 21.601562 1.601562 21.601562 L 22.398438 21.601562 C 23.28125 21.601562 24 20.878906 24 20 L 24 8 C 24 7.121094 23.28125 6.398438 22.398438 6.398438 Z M 2.398438 4 C 2.398438 3.558594 2.761719 3.199219 3.199219 3.199219 L 11.800781 3.199219 L 13.679688 5.441406 C 13.761719 5.558594 13.878906 5.601562 14 5.601562 L 20.398438 5.601562 C 20.921875 5.601562 21.359375 5.921875 21.519531 6.398438 L 2.398438 6.398438 Z M 14.800781 7.199219 L 18 7.199219 L 18 12.238281 L 16.679688 10.921875 C 16.519531 10.761719 16.28125 10.761719 16.121094 10.921875 L 14.800781 12.238281 Z M 23.199219 20 C 23.199219 20.441406 22.839844 20.800781 22.398438 20.800781 L 1.601562 20.800781 C 1.160156 20.800781 0.800781 20.441406 0.800781 20 L 0.800781 8 C 0.800781 7.558594 1.160156 7.199219 1.601562 7.199219 L 14.039062 7.199219 L 14.039062 12.519531 C 14.039062 12.800781 14.199219 13.039062 14.441406 13.160156 C 14.679688 13.238281 14.960938 13.199219 15.160156 13 L 16.398438 11.761719 L 17.640625 13 C 17.761719 13.121094 17.960938 13.199219 18.121094 13.199219 C 18.199219 13.199219 18.28125 13.199219 18.441406 13.160156 C 18.679688 13.039062 18.839844 12.800781 18.839844 12.519531 L 18.839844 7.199219 L 22.398438 7.199219 C 22.839844 7.199219 23.199219 7.558594 23.199219 8 Z M 23.199219 20"/>
    <path d="M7.601562 8.800781L2.800781 8.800781C2.558594 8.800781 2.398438 8.960938 2.398438 9.199219 2.398438 9.441406 2.558594 9.601562 2.800781 9.601562L7.601562 9.601562C7.839844 9.601562 8 9.441406 8 9.199219 8 8.960938 7.839844 8.800781 7.601562 8.800781zM7.601562 10.398438L2.800781 10.398438C2.558594 10.398438 2.398438 10.558594 2.398438 10.800781 2.398438 11.039062 2.558594 11.199219 2.800781 11.199219L7.601562 11.199219C7.839844 11.199219 8 11.039062 8 10.800781 8 10.558594 7.839844 10.398438 7.601562 10.398438zM7.601562 10.398438"/>
</svg>

<svg xmlns="http://www.w3.org/2000/svg" width="32" height="32" viewBox="0 0 24 24">
    <path d="M22.398 6.398h-.035a1.98 1.98 0 0 0-1.965-1.597H14.2L12.32 2.559a.372.372 0 0 0-.32-.16H3.2c-.88 0-1.598.722-1.598 1.601v2.398C.719 6.398 0 7.121 0 8v12c0 .879.719 1.602 1.602 1.602h20.796c.883 0 1.602-.723 1.602-1.602V8c0-.879-.719-1.602-1.602-1.602zM2.398 4c0-.441.364-.8.801-.8h8.602L13.68 5.44c.082.118.199.16.32.16h6.398c.524 0 .961.32 1.122.797H2.398zm12.403 3.2H18v5.038l-1.32-1.316a.385.385 0 0 0-.559 0l-1.32 1.316zM23.199 20c0 .441-.36.8-.8.8H1.601C1.16 20.8.8 20.442.8 20V8c0-.441.36-.8.8-.8H14.04v5.32c0 .28.16.52.402.64a.7.7 0 0 0 .72-.16l1.237-1.238L17.641 13c.12.121.32.2.48.2.078 0 .16 0 .32-.04a.715.715 0 0 0 .399-.64V7.2h3.558c.442 0 .801.359.801.8zm0 0"/>
    <path d="M7.602 8.8H2.8c-.242 0-.403.16-.403.4 0 .241.16.402.403.402h4.8c.239 0 .399-.16.399-.403 0-.238-.16-.398-.398-.398zm0 0M7.602 10.398H2.8c-.242 0-.403.16-.403.403 0 .238.16.398.403.398h4.8c.239 0 .399-.16.399-.398 0-.242-.16-.403-.398-.403zm0 0"/>
</svg>
